apps/scalable/com.github.bartzaalberg.snaptastic.svg

<svg xmlns="http://www.w3.org/2000/svg" style="isolation:isolate" width="256" height="256"><defs><filter id="a" width="270.648" height="254.338" x="-7.32" y="2.95" filterUnits="userSpaceOnUse"><feGaussianBlur xmlns="http://www.w3.org/2000/svg" in="SourceGraphic" stdDeviation="4.294"/><feOffset xmlns="http://www.w3.org/2000/svg" dy="4" result="pf_100_offsetBlur"/><feFlood xmlns="http://www.w3.org/2000/svg" flood-opacity=".4"/><feComposite xmlns="http://www.w3.org/2000/svg" in2="pf_100_offsetBlur" operator="in" result="pf_100_dropShadow"/><feBlend xmlns="http://www.w3.org/2000/svg" in="SourceGraphic" in2="pf_100_dropShadow"/></filter></defs><path fill="#2E2E2E" d="M165.685 11.947c74.055 0 84.639 10.557 84.639 84.544v59.251c0 73.986-10.584 84.543-84.639 84.543h-75.37c-74.055 0-84.639-10.557-84.639-84.543V96.491c0-73.987 10.584-84.544 84.639-84.544h75.37z" filter="url(#a)"/><path fill="#E4E4E4" d="M145.857 11.831h-35.714v26.768h35.714V11.831z"/><path fill="#A0A0A0" d="M181.572 12.212c-5.126-.161-9.98-.381-15.886-.381h-19.829v26.768h35.715V12.212zM110.143 11.831H90.314c-5.906 0-10.76.22-15.886.381v26.387h35.715V11.831z"/><path fill="#E4E4E4" d="M74.428 12.212c-2.908.091-6.342.06-9.012.217-3.688.216-7.155.499-10.412.863-3.257.364-6.305.807-9.156 1.344a79.848 79.848 0 0 0-7.133 1.701v22.262h35.713V12.212z"/><path fill="#A0A0A0" d="M38.715 16.337c-.266.075-.584.123-.846.201-2.472.735-4.761 1.576-6.879 2.535a39.619 39.619 0 0 0-5.855 3.248 33.279 33.279 0 0 0-4.91 4.037 33.261 33.261 0 0 0-4.043 4.905 39.5 39.5 0 0 0-3.252 5.847c-.208.459-.354 1.014-.551 1.489h26.336V16.337z"/><path fill="#E4E4E4" d="M217.285 16.337a79.848 79.848 0 0 0-7.133-1.701c-2.851-.537-5.899-.98-9.156-1.344a198.576 198.576 0 0 0-10.412-.863c-2.67-.157-6.104-.126-9.012-.217v26.387h35.713V16.337z"/><path fill="#A0A0A0" d="M243.621 38.599c-.197-.475-.343-1.03-.551-1.489a39.5 39.5 0 0 0-3.252-5.847 33.261 33.261 0 0 0-4.043-4.905 33.279 33.279 0 0 0-4.91-4.037 39.619 39.619 0 0 0-5.855-3.248c-2.118-.959-4.407-1.8-6.879-2.535-.262-.078-.58-.126-.846-.201v22.262h26.336z"/><path fill="#E4E4E4" d="M74.43 38.6h35.714v35.714H74.43z"/><path fill="#363636" d="M110.14 38.6h35.714v35.714H110.14z"/><path fill="#F06826" d="M38.71 38.6h35.714v35.714H38.71z"/><path fill="#E4E4E4" d="M12.379 38.599c-.713 1.715-1.412 3.448-1.988 5.382-.737 2.47-1.367 5.123-1.905 7.971-.537 2.849-.981 5.893-1.345 9.147a197.869 197.869 0 0 0-.866 10.4c-.049.833-.026 1.956-.068 2.813h32.508V38.599H12.379zM249.793 74.312c-.042-.857-.019-1.98-.068-2.813a197.869 197.869 0 0 0-.866-10.4c-.364-3.254-.808-6.298-1.345-9.147-.538-2.848-1.168-5.501-1.905-7.971-.576-1.934-1.275-3.667-1.988-5.382h-26.336v35.713h32.508zM145.86 38.6h35.714v35.714H145.86z"/><path fill="#806" d="M181.57 38.6h35.714v35.714H181.57z"/><path fill="#E4E4E4" d="M110.14 74.31h35.714v35.714H110.14z"/><path fill="#F06826" d="M145.86 74.31h35.714v35.714H145.86z"/><path fill="#A0A0A0" d="M74.43 74.31h35.714v35.714H74.43z"/><path fill="#E4E4E4" d="M38.71 74.31h35.714v35.714H38.71z"/><path fill="#A0A0A0" d="M6.207 74.312a440.44 440.44 0 0 0-.531 22.062v13.652h33.039V74.312H6.207z"/><path fill="#E4E4E4" d="M181.57 74.31h35.714v35.714H181.57z"/><path fill="#A0A0A0" d="M250.324 110.026V96.374c0-8.203-.199-15.347-.531-22.062h-32.508v35.714h33.039z"/><path fill="#E4E4E4" d="M74.43 110.03h35.714v35.714H74.43z"/><path fill="#A0A0A0" d="M110.14 110.03h35.714v35.714H110.14z"/><path fill="#806" d="M38.71 110.03h35.714v35.714H38.71z"/><path fill="#E4E4E4" d="M5.676 110.026v35.713h33.039v-35.713H5.676zM250.324 145.739v-35.713h-33.039v35.713h33.039zM145.86 110.03h35.714v35.714H145.86z"/><path fill="#363636" d="M181.57 110.03h35.714v35.714H181.57z"/><path fill="#E4E4E4" d="M110.14 145.74h35.714v35.714H110.14z"/><path fill="#363636" d="M145.86 145.74h35.714v35.714H145.86z"/><path fill="#F06826" d="M74.43 145.74h35.714v35.714H74.43z"/><path fill="#E4E4E4" d="M38.71 145.74h35.714v35.714H38.71z"/><path fill="#A0A0A0" d="M5.676 145.739v9.887c0 9.248.165 17.506.599 24.875.02.338.059.619.08.953h32.36v-35.715H5.676z"/><path fill="#E4E4E4" d="M181.57 145.74h35.714v35.714H181.57z"/><path fill="#A0A0A0" d="M249.645 181.454c.021-.334.06-.615.08-.953.434-7.369.599-15.627.599-24.875v-9.887h-33.039v35.715h32.36z"/><path fill="#E4E4E4" d="M74.43 181.46h35.714v35.714H74.43z"/><path fill="#806" d="M110.14 181.46h35.714v35.714H110.14z"/><path fill="#A0A0A0" d="M38.71 181.46h35.714v35.714H38.71z"/><path fill="#E4E4E4" d="M6.355 181.456c.209 3.309.455 6.49.786 9.445.364 3.254.808 6.298 1.345 9.147.538 2.848 1.168 5.501 1.905 7.971.736 2.469 1.578 4.755 2.539 6.871.374.824.856 1.505 1.267 2.279h24.518v-35.713H6.355zM241.803 217.169c.411-.774.893-1.455 1.267-2.279.961-2.116 1.803-4.402 2.539-6.871.737-2.47 1.367-5.123 1.905-7.971.537-2.849.981-5.893 1.345-9.147.331-2.955.577-6.136.786-9.445h-32.36v35.713h24.518zM145.86 181.46h35.714v35.714H145.86z"/><path fill="#A0A0A0" d="M181.57 181.46h35.714v35.714H181.57z"/><path fill="#E4E4E4" d="M110.143 240.169h35.714v-23h-35.714v23z"/><path fill="#A0A0A0" d="M145.857 240.169h19.829c5.906 0 10.76-.22 15.886-.381v-22.619h-35.715v23zM74.428 239.788c5.126.161 9.98.381 15.886.381h19.829v-23H74.428v22.619z"/><path fill="#E4E4E4" d="M38.715 235.663a79.848 79.848 0 0 0 7.133 1.701c2.851.537 5.899.98 9.156 1.344 3.257.364 6.724.647 10.412.863 2.67.157 6.104.126 9.012.217v-22.619H38.715v18.494z"/><path fill="#A0A0A0" d="M14.197 217.169c.644 1.211 1.245 2.477 1.985 3.568a33.261 33.261 0 0 0 4.043 4.905 33.279 33.279 0 0 0 4.91 4.037 39.619 39.619 0 0 0 5.855 3.248c2.118.959 4.407 1.8 6.879 2.535.262.078.58.126.846.201v-18.494H14.197z"/><path fill="#E4E4E4" d="M181.572 239.788c2.908-.091 6.342-.06 9.012-.217 3.688-.216 7.155-.499 10.412-.863 3.257-.364 6.305-.807 9.156-1.344a79.848 79.848 0 0 0 7.133-1.701v-18.494h-35.713v22.619z"/><path fill="#A0A0A0" d="M217.285 235.663c.266-.075.584-.123.846-.201 2.472-.735 4.761-1.576 6.879-2.535a39.619 39.619 0 0 0 5.855-3.248 33.279 33.279 0 0 0 4.91-4.037 33.261 33.261 0 0 0 4.043-4.905c.74-1.091 1.341-2.357 1.985-3.568h-24.518v18.494z"/><g opacity=".4"><linearGradient id="b" x1=".517" x2=".517" y2="1"><stop offset="0%" stop-color="#fff"/><stop offset="12.5%" stop-opacity=".098" stop-color="#fff"/><stop offset="92.5%" stop-opacity=".098"/><stop offset="100%" stop-opacity=".498"/></linearGradient><path fill="none" stroke="url(#b)" stroke-linecap="round" stroke-linejoin="round" stroke-width="4.077" d="M165.685 11.947c74.055 0 84.639 10.557 84.639 84.544v59.251c0 73.986-10.584 84.543-84.639 84.543h-75.37c-74.055 0-84.639-10.557-84.639-84.543V96.491c0-73.987 10.584-84.544 84.639-84.544h75.37z" vector-effect="non-scaling-stroke"/></g><g opacity=".1"><path fill="#FFF" d="M5.676 126.116v29.626c0 73.986 10.584 84.543 84.639 84.543h75.37c74.055 0 84.639-10.557 84.639-84.543v-29.626H5.676z"/></g><g opacity=".2"><path fill="#FFF" d="M128 11.947v228.338h37.685c74.055 0 84.639-10.557 84.639-84.543V96.491c0-73.987-10.584-84.544-84.639-84.544H128z"/></g></svg>

<svg xmlns="http://www.w3.org/2000/svg" style="isolation:isolate" width="256" height="256" viewBox="0 0 256 256">
 <defs>
  <filter id="RBvQYXJAOUcFdu4Q7nkMaSG3TvlU9YDi" width="270.648" height="254.338" x="-7.32" y="2.95" filterUnits="userSpaceOnUse">
   <feGaussianBlur xmlns="http://www.w3.org/2000/svg" in="SourceGraphic" stdDeviation="4.294"/>
   <feOffset xmlns="http://www.w3.org/2000/svg" dx="0" dy="4" result="pf_100_offsetBlur"/>
   <feFlood xmlns="http://www.w3.org/2000/svg" flood-opacity=".4"/>
   <feComposite xmlns="http://www.w3.org/2000/svg" in2="pf_100_offsetBlur" operator="in" result="pf_100_dropShadow"/>
   <feBlend xmlns="http://www.w3.org/2000/svg" in="SourceGraphic" in2="pf_100_dropShadow" mode="normal"/>
  </filter>
 </defs>
 <g filter="url(#RBvQYXJAOUcFdu4Q7nkMaSG3TvlU9YDi)">
  <path fill="#2E2E2E" d="M 165.685 11.947 C 239.74 11.947 250.324 22.504 250.324 96.491 L 250.324 155.742 C 250.324 229.728 239.74 240.285 165.685 240.285 L 90.315 240.285 C 16.26 240.285 5.676 229.728 5.676 155.742 L 5.676 96.491 C 5.676 22.504 16.26 11.947 90.315 11.947 L 165.685 11.947 Z"/>
 </g>
 <g>
  <path fill="#E4E4E4" d="M 145.857 11.831 L 110.143 11.831 L 110.143 38.599 L 145.857 38.599 L 145.857 11.831 Z"/>
  <path fill="#A0A0A0" d="M 181.572 12.212 C 176.446 12.051 171.592 11.831 165.686 11.831 L 145.857 11.831 L 145.857 38.599 L 181.572 38.599 L 181.572 12.212 Z"/>
  <path fill="#A0A0A0" d="M 110.143 11.831 L 90.314 11.831 C 84.408 11.831 79.554 12.051 74.428 12.212 L 74.428 38.599 L 110.143 38.599 L 110.143 11.831 Z"/>
  <path fill="#E4E4E4" d="M 74.428 12.212 C 71.52 12.303 68.086 12.272 65.416 12.429 C 61.728 12.645 58.261 12.928 55.004 13.292 C 51.747 13.656 48.699 14.099 45.848 14.636 C 43.298 15.115 40.96 15.7 38.715 16.337 L 38.715 38.599 L 74.428 38.599 L 74.428 12.212 Z"/>
  <path fill="#A0A0A0" d="M 38.715 16.337 C 38.449 16.412 38.131 16.46 37.869 16.538 C 35.397 17.273 33.108 18.114 30.99 19.073 C 28.872 20.033 26.925 21.111 25.135 22.321 C 23.345 23.531 21.712 24.872 20.225 26.358 C 18.737 27.844 17.393 29.475 16.182 31.263 C 14.97 33.051 13.891 34.995 12.93 37.11 C 12.722 37.569 12.576 38.124 12.379 38.599 L 38.715 38.599 L 38.715 16.337 Z"/>
  <path fill="#E4E4E4" d="M 217.285 16.337 C 215.04 15.7 212.702 15.115 210.152 14.636 C 207.301 14.099 204.253 13.656 200.996 13.292 C 197.739 12.928 194.272 12.645 190.584 12.429 C 187.914 12.272 184.48 12.303 181.572 12.212 L 181.572 38.599 L 217.285 38.599 L 217.285 16.337 Z"/>
  <path fill="#A0A0A0" d="M 243.621 38.599 C 243.424 38.124 243.278 37.569 243.07 37.11 C 242.109 34.995 241.03 33.051 239.818 31.263 C 238.607 29.475 237.263 27.844 235.775 26.358 C 234.288 24.872 232.655 23.531 230.865 22.321 C 229.075 21.111 227.128 20.033 225.01 19.073 C 222.892 18.114 220.603 17.273 218.131 16.538 C 217.869 16.46 217.551 16.412 217.285 16.337 L 217.285 38.599 L 243.621 38.599 Z"/>
  <rect fill="#E4E4E4" width="35.714" height="35.714" x="74.43" y="38.6" transform="matrix(1,0,0,1,0,0)"/>
  <rect fill="#363636" width="35.714" height="35.714" x="110.14" y="38.6" transform="matrix(1,0,0,1,0,0)"/>
  <rect fill="#F06826" width="35.714" height="35.714" x="38.71" y="38.6" transform="matrix(1,0,0,1,0,0)"/>
  <path fill="#E4E4E4" d="M 12.379 38.599 C 11.666 40.314 10.967 42.047 10.391 43.981 C 9.654 46.451 9.024 49.104 8.486 51.952 C 7.949 54.801 7.505 57.845 7.141 61.099 C 6.776 64.352 6.492 67.814 6.275 71.499 C 6.226 72.332 6.249 73.455 6.207 74.312 L 38.715 74.312 L 38.715 38.599 L 12.379 38.599 Z"/>
  <path fill="#E4E4E4" d="M 249.793 74.312 C 249.751 73.455 249.774 72.332 249.725 71.499 C 249.508 67.814 249.224 64.352 248.859 61.099 C 248.495 57.845 248.051 54.801 247.514 51.952 C 246.976 49.104 246.346 46.451 245.609 43.981 C 245.033 42.047 244.334 40.314 243.621 38.599 L 217.285 38.599 L 217.285 74.312 L 249.793 74.312 Z"/>
  <rect fill="#E4E4E4" width="35.714" height="35.714" x="145.86" y="38.6" transform="matrix(1,0,0,1,0,0)"/>
  <rect fill="#880066" width="35.714" height="35.714" x="181.57" y="38.6" transform="matrix(1,0,0,1,0,0)"/>
  <rect fill="#E4E4E4" width="35.714" height="35.714" x="110.14" y="74.31" transform="matrix(1,0,0,1,0,0)"/>
  <rect fill="#F06826" width="35.714" height="35.714" x="145.86" y="74.31" transform="matrix(1,0,0,1,0,0)"/>
  <rect fill="#A0A0A0" width="35.714" height="35.714" x="74.43" y="74.31" transform="matrix(1,0,0,1,0,0)"/>
  <rect fill="#E4E4E4" width="35.714" height="35.714" x="38.71" y="74.31" transform="matrix(1,0,0,1,0,0)"/>
  <path fill="#A0A0A0" d="M 6.207 74.312 C 5.875 81.027 5.676 88.171 5.676 96.374 L 5.676 110.026 L 38.715 110.026 L 38.715 74.312 L 6.207 74.312 Z"/>
  <rect fill="#E4E4E4" width="35.714" height="35.714" x="181.57" y="74.31" transform="matrix(1,0,0,1,0,0)"/>
  <path fill="#A0A0A0" d="M 250.324 110.026 L 250.324 96.374 C 250.324 88.171 250.125 81.027 249.793 74.312 L 217.285 74.312 L 217.285 110.026 L 250.324 110.026 Z"/>
  <rect fill="#E4E4E4" width="35.714" height="35.714" x="74.43" y="110.03" transform="matrix(1,0,0,1,0,0)"/>
  <rect fill="#A0A0A0" width="35.714" height="35.714" x="110.14" y="110.03" transform="matrix(1,0,0,1,0,0)"/>
  <rect fill="#880066" width="35.714" height="35.714" x="38.71" y="110.03" transform="matrix(1,0,0,1,0,0)"/>
  <path fill="#E4E4E4" d="M 5.676 110.026 L 5.676 145.739 L 38.715 145.739 L 38.715 110.026 L 5.676 110.026 Z"/>
  <path fill="#E4E4E4" d="M 250.324 145.739 L 250.324 110.026 L 217.285 110.026 L 217.285 145.739 L 250.324 145.739 Z"/>
  <rect fill="#E4E4E4" width="35.714" height="35.714" x="145.86" y="110.03" transform="matrix(1,0,0,1,0,0)"/>
  <rect fill="#363636" width="35.714" height="35.714" x="181.57" y="110.03" transform="matrix(1,0,0,1,0,0)"/>
  <rect fill="#E4E4E4" width="35.714" height="35.714" x="110.14" y="145.74" transform="matrix(1,0,0,1,0,0)"/>
  <rect fill="#363636" width="35.714" height="35.714" x="145.86" y="145.74" transform="matrix(1,0,0,1,0,0)"/>
  <rect fill="#F06826" width="35.714" height="35.714" x="74.43" y="145.74" transform="matrix(1,0,0,1,0,0)"/>
  <rect fill="#E4E4E4" width="35.714" height="35.714" x="38.71" y="145.74" transform="matrix(1,0,0,1,0,0)"/>
  <path fill="#A0A0A0" d="M 5.676 145.739 L 5.676 155.626 C 5.676 164.874 5.841 173.132 6.275 180.501 C 6.295 180.839 6.334 181.12 6.355 181.454 L 38.715 181.454 L 38.715 145.739 L 5.676 145.739 Z"/>
  <rect fill="#E4E4E4" width="35.714" height="35.714" x="181.57" y="145.74" transform="matrix(1,0,0,1,0,0)"/>
  <path fill="#A0A0A0" d="M 249.645 181.454 C 249.666 181.12 249.705 180.839 249.725 180.501 C 250.159 173.132 250.324 164.874 250.324 155.626 L 250.324 145.739 L 217.285 145.739 L 217.285 181.454 L 249.645 181.454 Z"/>
  <rect fill="#E4E4E4" width="35.714" height="35.714" x="74.43" y="181.46" transform="matrix(1,0,0,1,0,0)"/>
  <rect fill="#880066" width="35.714" height="35.714" x="110.14" y="181.46" transform="matrix(1,0,0,1,0,0)"/>
  <rect fill="#A0A0A0" width="35.714" height="35.714" x="38.71" y="181.46" transform="matrix(1,0,0,1,0,0)"/>
  <path fill="#E4E4E4" d="M 6.355 181.456 C 6.564 184.765 6.81 187.946 7.141 190.901 C 7.505 194.155 7.949 197.199 8.486 200.048 C 9.024 202.896 9.654 205.549 10.391 208.019 C 11.127 210.488 11.969 212.774 12.93 214.89 C 13.304 215.714 13.786 216.395 14.197 217.169 L 38.715 217.169 L 38.715 181.456 L 6.355 181.456 Z"/>
  <path fill="#E4E4E4" d="M 241.803 217.169 C 242.214 216.395 242.696 215.714 243.07 214.89 C 244.031 212.774 244.873 210.488 245.609 208.019 C 246.346 205.549 246.976 202.896 247.514 200.048 C 248.051 197.199 248.495 194.155 248.859 190.901 C 249.19 187.946 249.436 184.765 249.645 181.456 L 217.285 181.456 L 217.285 217.169 L 241.803 217.169 Z"/>
  <rect fill="#E4E4E4" width="35.714" height="35.714" x="145.86" y="181.46" transform="matrix(1,0,0,1,0,0)"/>
  <rect fill="#A0A0A0" width="35.714" height="35.714" x="181.57" y="181.46" transform="matrix(1,0,0,1,0,0)"/>
  <path fill="#E4E4E4" d="M 110.143 240.169 L 145.857 240.169 L 145.857 217.169 L 110.143 217.169 L 110.143 240.169 Z"/>
  <path fill="#A0A0A0" d="M 145.857 240.169 L 165.686 240.169 C 171.592 240.169 176.446 239.949 181.572 239.788 L 181.572 217.169 L 145.857 217.169 L 145.857 240.169 Z"/>
  <path fill="#A0A0A0" d="M 74.428 239.788 C 79.554 239.949 84.408 240.169 90.314 240.169 L 110.143 240.169 L 110.143 217.169 L 74.428 217.169 L 74.428 239.788 Z"/>
  <path fill="#E4E4E4" d="M 38.715 235.663 C 40.96 236.3 43.298 236.885 45.848 237.364 C 48.699 237.901 51.747 238.344 55.004 238.708 C 58.261 239.072 61.728 239.355 65.416 239.571 C 68.086 239.728 71.52 239.697 74.428 239.788 L 74.428 217.169 L 38.715 217.169 L 38.715 235.663 Z"/>
  <path fill="#A0A0A0" d="M 14.197 217.169 C 14.841 218.38 15.442 219.646 16.182 220.737 C 17.393 222.525 18.737 224.156 20.225 225.642 C 21.712 227.128 23.345 228.469 25.135 229.679 C 26.925 230.889 28.872 231.967 30.99 232.927 C 33.108 233.886 35.397 234.727 37.869 235.462 C 38.131 235.54 38.449 235.588 38.715 235.663 L 38.715 217.169 L 14.197 217.169 Z"/>
  <path fill="#E4E4E4" d="M 181.572 239.788 C 184.48 239.697 187.914 239.728 190.584 239.571 C 194.272 239.355 197.739 239.072 200.996 238.708 C 204.253 238.344 207.301 237.901 210.152 237.364 C 212.702 236.885 215.04 236.3 217.285 235.663 L 217.285 217.169 L 181.572 217.169 L 181.572 239.788 Z"/>
  <path fill="#A0A0A0" d="M 217.285 235.663 C 217.551 235.588 217.869 235.54 218.131 235.462 C 220.603 234.727 222.892 233.886 225.01 232.927 C 227.128 231.967 229.075 230.889 230.865 229.679 C 232.655 228.469 234.288 227.128 235.775 225.642 C 237.263 224.156 238.607 222.525 239.818 220.737 C 240.558 219.646 241.159 218.38 241.803 217.169 L 217.285 217.169 L 217.285 235.663 Z"/>
 </g>
 <g opacity=".4">
  <linearGradient id="_lgradient_62" x1=".517" x2=".517" y1="0" y2="1">
   <stop offset="0%" style="stop-color:rgb(255,255,255)"/>
   <stop offset="12.5%" stop-opacity=".098" style="stop-color:rgb(255,255,255)"/>
   <stop offset="92.5%" stop-opacity=".098" style="stop-color:rgb(0,0,0)"/>
   <stop offset="100%" stop-opacity=".498" style="stop-color:rgb(0,0,0)"/>
  </linearGradient>
  <path fill="none" stroke="url(#_lgradient_62)" stroke-linecap="round" stroke-linejoin="round" stroke-width="4.077" d="M 165.685 11.947 C 239.74 11.947 250.324 22.504 250.324 96.491 L 250.324 155.742 C 250.324 229.728 239.74 240.285 165.685 240.285 L 90.315 240.285 C 16.26 240.285 5.676 229.728 5.676 155.742 L 5.676 96.491 C 5.676 22.504 16.26 11.947 90.315 11.947 L 165.685 11.947 Z" vector-effect="non-scaling-stroke"/>
 </g>
 <g opacity=".1">
  <path fill="#FFFFFF" d="M 5.676 126.116 L 5.676 155.742 C 5.676 229.728 16.26 240.285 90.315 240.285 L 165.685 240.285 C 239.74 240.285 250.324 229.728 250.324 155.742 L 250.324 126.116 L 5.676 126.116 Z"/>
 </g>
 <g opacity=".2">
  <path fill="#FFFFFF" d="M 128 11.947 L 128 240.285 L 165.685 240.285 C 239.74 240.285 250.324 229.728 250.324 155.742 L 250.324 96.491 C 250.324 22.504 239.74 11.947 165.685 11.947 L 128 11.947 Z"/>
 </g>
</svg>
